icons/list-ordered-17.svg

<svg width="16" height="17" viewBox="0 0 16 17" fill="none" xmlns="http://www.w3.org/2000/svg">
<path fill-rule="evenodd" clip-rule="evenodd" d="M3.6027 3.76643C3.6027 3.62787 3.531 3.49919 3.41318 3.42627C3.29537 3.35335 3.14821 3.34659 3.0242 3.40841L2.22166 3.80844C2.02393 3.907 1.94354 4.14719 2.0421 4.34493C2.14066 4.54266 2.38085 4.62305 2.57859 4.52449L2.80262 4.41281V6.56668H2.40012C2.17919 6.56668 2.00009 6.74579 2.00009 6.96672C2.00009 7.18765 2.17919 7.36675 2.40012 7.36675H4.0052C4.22614 7.36675 4.40524 7.18765 4.40524 6.96672C4.40524 6.74579 4.22614 6.56668 4.0052 6.56668H3.6027V3.76643ZM6 4.36639C6 4.03503 6.26863 3.76639 6.6 3.76639H13.4C13.7314 3.76639 14 4.03503 14 4.36639C14 4.69776 13.7314 4.96639 13.4 4.96639H6.6C6.26863 4.96639 6 4.69776 6 4.36639ZM6 8.36639C6 8.03503 6.26863 7.76639 6.6 7.76639H13.4C13.7314 7.76639 14 8.03503 14 8.36639C14 8.69776 13.7314 8.96639 13.4 8.96639H6.6C6.26863 8.96639 6 8.69776 6 8.36639ZM6 12.3664C6 12.035 6.26863 11.7664 6.6 11.7664H13.4C13.7314 11.7664 14 12.035 14 12.3664C14 12.6978 13.7314 12.9664 13.4 12.9664H6.6C6.26863 12.9664 6 12.6978 6 12.3664ZM2.73952 10.0224L2.74163 10.0193C2.74505 10.0143 2.75184 10.0049 2.76191 9.99239C2.7824 9.96695 2.8143 9.93167 2.8566 9.89663C2.94095 9.82663 3.05367 9.76695 3.2002 9.76695C3.35646 9.76695 3.44574 9.82183 3.50034 9.88375C3.56135 9.95295 3.6025 10.0592 3.6025 10.1849C3.6025 10.5468 3.38718 10.7306 2.96246 11.0468L2.93444 11.0676C2.55352 11.3506 2.0001 11.7619 2.0001 12.5663C2.0001 12.6724 2.04224 12.7742 2.11727 12.8492C2.19229 12.9242 2.29404 12.9664 2.40013 12.9664H4.00247C4.22341 12.9664 4.40257 12.7873 4.40257 12.5663C4.40257 12.3454 4.22346 12.1663 4.00254 12.1663H2.91689C3.02222 12.0085 3.19794 11.8689 3.4402 11.6886L3.47753 11.6608C3.85413 11.3814 4.40257 10.9745 4.40257 10.1849C4.40257 9.89263 4.30791 9.58991 4.10045 9.35461C3.88657 9.11204 3.57469 8.96689 3.20022 8.96688C2.81602 8.96687 2.5287 9.12906 2.34569 9.28091C2.25432 9.35674 2.18571 9.43239 2.13911 9.49017C2.11563 9.51928 2.09724 9.54449 2.08386 9.56381C2.07716 9.57349 2.07168 9.58175 2.06741 9.58835L2.06189 9.597L2.05981 9.60035L2.05893 9.60178L2.05835 9.60274C1.94371 9.79159 2.00369 10.0379 2.19255 10.1526C2.38001 10.2664 2.6238 10.2079 2.73952 10.0224ZM2.40009 9.81055L2.05835 9.60274C2.05835 9.60274 2.05817 9.60303 2.40009 9.81055Z" fill="#272431"/>
</svg>

<svg xmlns="http://www.w3.org/2000/svg" width="16" height="17" viewBox="0 0 16 17"><path fill-rule="evenodd" d="M3.603 3.766a.4.4 0 00-.579-.358l-.802.4a.4.4 0 00.357.716l.224-.111v2.154H2.4a.4.4 0 000 .8h1.605a.4.4 0 100-.8h-.402v-2.8zm2.397.6a.6.6 0 01.6-.6h6.8a.6.6 0 110 1.2H6.6a.6.6 0 01-.6-.6zm0 4a.6.6 0 01.6-.6h6.8a.6.6 0 110 1.2H6.6a.6.6 0 01-.6-.6zm0 4a.6.6 0 01.6-.6h6.8a.6.6 0 110 1.2H6.6a.6.6 0 01-.6-.6zm-3.26-2.344l.002-.003a.681.681 0 01.115-.123.528.528 0 01.343-.13c.156 0 .246.056.3.118a.454.454 0 01.103.3c0 .363-.216.547-.64.863l-.029.02c-.38.284-.934.695-.934 1.5a.4.4 0 00.4.4h1.602a.4.4 0 000-.8H2.918c.105-.159.28-.298.523-.478l.038-.028c.376-.28.925-.686.925-1.476a1.25 1.25 0 00-.303-.83 1.17 1.17 0 00-.9-.388c-.384 0-.671.162-.854.314a1.487 1.487 0 00-.279.307l-.005.009-.002.003-.001.002a.4.4 0 00.68.42zm-.34-.211l-.342-.208.342.208z"/></svg>
